src/lib/packages/icons/src/assets/filled/caret-right-circle.svg

<svg width="24" height="24" viewBox="0 0 24 24" fill="none" xmlns="http://www.w3.org/2000/svg">
<path d="M12 2C6.477 2 2 6.477 2 12C2 17.523 6.477 22 12 22C17.523 22 22 17.523 22 12C22 6.477 17.523 2 12 2ZM14.7639 12.8679L11.302 15.7881C10.72 16.2791 9.83301 15.8621 9.83301 15.0991V8.90088C9.83301 8.13688 10.719 7.72091 11.302 8.21191L14.7639 11.1321C15.3009 11.5851 15.3009 12.4149 14.7639 12.8679Z" fill="currentColor"/>
</svg>

<svg xmlns="http://www.w3.org/2000/svg" width="24" height="24" fill="none"><path fill="currentColor" d="M12 2C6.477 2 2 6.477 2 12s4.477 10 10 10 10-4.477 10-10S17.523 2 12 2Zm2.764 10.868-3.462 2.92c-.582.491-1.469.074-1.469-.689V8.901c0-.764.886-1.18 1.469-.69l3.462 2.921a1.137 1.137 0 0 1 0 1.736Z"/></svg>
